src/images/icons/phone.svg

<svg xmlns="http://www.w3.org/2000/svg" width="24" height="24" viewBox="0 0 24 24"><path d="M12 0c-6.627 0-12 5.373-12 12s5.373 12 12 12 12-5.373 12-12-5.373-12-12-12zm3.445 17.827c-3.684 1.684-9.401-9.43-5.8-11.308l1.053-.519 1.746 3.409-1.042.513c-1.095.587 1.185 5.04 2.305 4.497l1.032-.505 1.76 3.397-1.054.516z"/></svg>

<svg xmlns="http://www.w3.org/2000/svg" width="24" height="24" viewBox="0 0 24 24">
  <g fill="none">
    <path d="M12 0C5.4 0 0 5.4 0 12 0 18.6 5.4 24 12 24 18.6 24 24 18.6 24 12 24 5.4 18.6 0 12 0ZM15.4 17.8C11.8 19.5 6 8.4 9.6 6.5L10.7 6 12.4 9.4 11.4 9.9C10.3 10.5 12.6 15 13.7 14.4L14.7 13.9 16.5 17.3 15.4 17.8 15.4 17.8Z" fill="#FFF"/>
  </g>
</svg>
